X:1
T:Marco Molinari -2013
T:Ave Regina coelorum
%%score [ 1 2 3 4 ]
L:1/8
Q:1/4=90
M:4/4
K:Eb
V:1 treble nm="Soprano" snm="S"
V:2 treble nm="Alto" snm="A"
V:3 treble-8 nm="Tenor" snm="T"
V:4 bass nm="Bass" snm="B"
V:1
"^Andante"!mf! (D2 C2) D2 F2 | (G2 F2) G2 B2 | (c2 B2 c2 e2 | d2 B2)!>(! c4- | c8!>)! | z8 | %6
w: A- * ve re-|gi- * na coe-|lo- * * *|* * rum|_||
!p! (B2 A2 B2) G2 | A2 B2 A2 GA | (B2 c2 B4) | !fermata!G8 ||!mf! (D2 C2 D2) F2 | (G2 F2 G2) B2 | %12
w: a- * * ve|do- mi- na an- ge-|lo- * *|rum.|Sal- * * ve|ra- * * dix|
 (c2 B2 c2) e2 | (d2 B2) c4- | c8- | c8- | c8- |!<(! c8!<)! |!f!!>(! e2 d2 c4 | c4 B2 A2 | G8!>)! | %21
w: sal- * * ve|por- * ta|_||||ex qua mun-|do lux est|hor-|
!mp! !fermata!G8 || z8 | z8 | z8 |!p! E2!<(! F2 G4- | G2 G2!<)! G4 |!p!!<(! =E2 ^F2 G4- | %28
w: ta||||su- per om-|* mni- a|spe- ci- o-|
 G4!<)! c2!f! c2 | (c2 G2) F2 E2 |!>(! D4 G4!>)! | !fermata!G4!p! E4- || %32
w: * sa o|val- * de de-|co- *|ra. et-|
[Q:1/4=60]"^Più lento" E4 A4 | F4 B4 ||[Q:1/4=92]"^Tempo primo"!>(! c8 | G8 | A8 | B8!>)! | %38
w: * pro|no bis|Chri-|stum|ex-|o-|
!pp! !fermata!c8 |] %39
w: ra|
V:2
 z8 | z8 | z8 | z8 |!p! (D2 C2 D2) F2 | (G6 FE | F4) F4 | G4 C2 E2 | (F8- | F2 ED !fermata!E4) || %10
w: ||||A- * * ve|do- * *|* mi-|na an- ge-|lo-|* * * rum.|
 z8 |!mf! D2 C2 D2 F2 | G2 G2 G4- | G4 G4 | z2!p!!<(! F2 G2 A2-!<)! | %15
w: |Sal- ve ra- dix|sal ve por-|* ta|ex qua mun-|
!f!!>(! A2 F2!>)!!p!!<(! G4!<)! | z2!p!!<(! F2 G2 A2-!<)! |!f!!>(! A2 F2!>)!!p!!<(! G4!<)! | %18
w: * * do|lux est hor-|* * ta,|
!f! E2!>(! D2 C4 | G4 F2 F2 | E4 D4!>)! |!mp! !fermata!E8 || z8 | z8 |!p!!<(! E2 F2 G4-!<)! | %25
w: ex qua- mun-|do lux est|hor- *|ta.|||su- per om-|
 G6!>(! F2!>)! | E4 z4 | z8 | z4 z2!f! G2 | (G2 E2) D2 C2 |!>(! B,4 D4!>)! | !fermata!D4 z4 || %32
w: * mni-|a||o|val- * de- de-|co- *|ra.|
!p! C4 E4 | D4 F4 || z8 |!mp! C2 B,2 C2 E2 | (F2 E2) F2 A2 |!>(! G8!>)! |!pp! !fermata!G8 |] %39
w: et pro|no- bis,||et pro no- bis|Chri- * stum ex|o-|ra.|
V:3
 z8 | z8 | z8 | z8 |!p! (G2 F2 G2) B2 | c4 d4 | e4 d4- | d4 c4 | B8 | !fermata!c8 || z8 | z8 | %12
w: ||||A- * * ve|do- mi-|na an-|* ge-|lo-|rum.|||
!mf! e2 d2 c4- | c4 c4 | z2!p!!<(! c2 d2 e2-!<)! |!f!!>(! e2!>)! c2!p!!<(! d4!<)! | %16
w: sal- ve por-|* ta|ex qua mun-|* * do,|
 z2!p!!<(! c2 d2 e2-!<)! |!f!!>(! e2 c2!>)!!p!!<(! d4!<)! |!f! c2!>(! B2 A4 | e4 d2 c2 | %20
w: lux est hor-|* * ta,|ex qua mun-|do lux est|
 c4 B4!>)! |!mp! !fermata!c8 ||!mf! (D2 C2 D2) F2 | (G2 F2 G2) B2 | (c2 B2 c2) e2 | (d2 B2 c4- | %26
w: hor- *|ta.|Gau- * * de|vir- * * go|glo- * * ri-|o- * *|
 c4) B4 |!p!!<(! ^c2 d2 =e4- | e4!<)! c2!f! c2 | (e2 B2) c2 d2 |!>(! e4 =A4!>)! | %31
w: * sa,|spe- ci- o-|* sa, o-|val- * de de-|co- *|
 !fermata!=B4 z4 ||!p! A4 c4 | B4 d4 ||!mp! (D2 C2 D2) F2 | (G2 F2 G2) B2 | (c2 B2) c2 e2 | %37
w: ra.|et pro|no- bis,|et- * * pro-|no- * * bis|Chri- * stum ex|
!>(! d4 B4!>)! |!pp! !fermata!e8 |] %39
w: o- *|ra|
V:4
 z8 | z8 | z8 | z8 |!p! C,6 C,2 | C,4 G,4 | C,4 C,2 D,2 | E,8 | D,8 | !fermata!C,8 || z8 | z8 | %12
w: ||||A- ve|do- mi-|na an- ge-|lo-||rum.|||
!mf! C2 B,2 A,4- | A,4 G,4 | z2!p!!<(! C2 C2 C2-!<)! |!f!!>(! C4!>)!!p!!<(! B,4!<)! | %16
w: sal- ve port-|* ta|ex qua mun-|* do,|
 z2!p!!<(! C2 C2 C2-!<)! |!f!!>(! C4!>)!!p!!<(! B,4!<)! |!f! C2!>(! C2 C4 | C4 B,2 A,2 | %20
w: lux est hor-|* ta,|ex qua mun-|do lux est|
 G,4 F,4!>)! |!mp! !fermata!E,8 || z8 | z8 | z8 | z8 |!p! G,2!<(! A,2 (B,4-!<)! | %27
w: hor- *|ta.|||||spe- ci o-|
!>(! B,6 =A,2)!>)! | G,4 z2!f! G,,2 | (C,2 G,,2) A,,2 B,,2 |!>(! C,4 G,4!>)! | !fermata!F,4 z4 || %32
w: |sa o|val- * de de-|co- *|ra.|
!p! A,4 A,4 | B,4 G,4 ||!>(! C,8 | C,8 | C,8 | C,8!>)! |!pp! !fermata!C,8 |] %39
w: et pro-|no- bis|Chri-|stum|ex-|o-|ra.|

